
-- This is my first attempt at using MIDI with TidalCycles.

-- https://tidalcycles.org/index.php/SuperDirt_MIDI_Tutorial

-- Download the following Nord2 patches and load them to their respective slots with a MIDI transfer program like C6 (Elektron)

-- https://bbpwc.com/shared/github/tidalcycles/nord2-midi/

-- For whatever reason with my setup the MIDI channels do not align between TidalCycles and what my MIDI interface transmits. As a result I have to setup the MIDI channels for slots A through D in the following fashion:

-- Set MIDI channel on slots A, B, C, D to 16, 15, 14, 13 on the Nord 2.




-- Yah so this is cool it demonstrates playing all four patch slots at once

d1 $ stack [
  degradeBy 0.60 $ n "1*16"-2 # s "midi" # midichan 1,
  degradeBy 0.40 $ n "1*16"-2 # s "midi" # midichan 2,
  degradeBy 0.40 $ n "1*16"-2 # s "midi" # midichan 3,
  degradeBy 0.80 $ n "1*16"-2 # s "midi" # midichan 4
]

hush


-- Tidal native cps speed is 0.5625

setcps 0.3625

setcps 0.5625




-- Testing out Nord parameter changes

-- Pulse Width

once $ ccv 0 # ccn 79 # s "midi"

-- Set Gain

once $ ccv 120 # ccn 7 # s "midi"




-- Attempting to modulate Nord params

d2 $ ccv (range 0 127 $ fast 2 $ sine) # ccn 79 # s "midi"

d2 $ ccv "[10 20 40 50 60 70 80 90 110 120]*0" # ccn 7 # s "midi"

d2 $ ccv (range 1 127 $ sine) # ccn 7 # s "midi"

d2 $ silence
